X:264
T:New-Rigged Ship
Z: id:dc-reel-244
M:C
L:1/8
K:A Mixolydian
eg|a3g ageg|agbg agef|g3g fgag|f2d2 d2:|!
ed|cAcA B2ed|cAcA E2ed|cAcA B2ed|c2A2 A2:|!
K:A Dorian
AB|cdec BcdB|ABAF GFE2|cdec BcdB|c2A2 A2:|!

